images/secr.svg

<svg width="96" height="96" viewBox="0 0 96 96" fill="none" xmlns="http://www.w3.org/2000/svg">
<path d="M79.3212 18.353C79.2212 18.3186 79.1164 18.291 79.0068 18.2805C67.7098 17.1504 58.6386 14.6492 48.3411 5.68476C47.7637 5.18356 46.8899 5.24359 46.3878 5.82007C46.3592 5.85246 46.3506 5.89439 46.3258 5.92869C36.1112 14.754 27.083 17.2362 15.8583 18.3577C15.8317 18.3606 15.8078 18.3691 15.7821 18.373C15.7383 18.3796 15.6954 18.3882 15.6535 18.3987C15.6068 18.4111 15.562 18.4244 15.5172 18.4406C15.4763 18.4559 15.4372 18.4721 15.3981 18.4911C15.3562 18.5111 15.3152 18.533 15.2762 18.5578C15.239 18.5807 15.2037 18.6045 15.1694 18.6302C15.1332 18.6569 15.0999 18.6855 15.0665 18.715C15.0332 18.7455 15.0017 18.777 14.9712 18.8113C14.9436 18.8427 14.9169 18.8742 14.8912 18.9075C14.8626 18.9456 14.8359 18.9856 14.8112 19.0266C14.7902 19.0609 14.7721 19.0952 14.754 19.1314C14.7321 19.1762 14.713 19.221 14.6968 19.2677C14.6835 19.3058 14.6711 19.3439 14.6616 19.383C14.6492 19.4316 14.6387 19.4802 14.6311 19.5307C14.6254 19.5717 14.6206 19.6126 14.6187 19.6545C14.6168 19.6822 14.6101 19.7079 14.6101 19.7355V55.3303C14.6101 55.4533 14.6263 55.5743 14.6587 55.6924C20.8513 78.5276 45.8332 89.3796 46.8937 89.8294C47.0672 89.9027 47.2511 89.9399 47.435 89.9399C47.617 89.9399 47.7999 89.9037 47.9714 89.8322C49.0434 89.3806 74.313 78.5304 80.5047 55.6924C80.5247 55.62 80.538 55.5466 80.5457 55.4714L80.6667 54.286C80.6714 54.2393 80.6743 54.1917 80.6743 54.1459V19.7346C80.6743 18.9809 80.0711 18.3701 79.3212 18.353ZM77.8024 55.0769C72.4026 74.7495 51.113 85.3405 47.4378 87.0375C43.7951 85.3386 22.8161 74.7924 17.3791 55.1445V20.9762C28.3322 19.7651 37.3671 17.0971 47.4778 8.57477C57.6819 17.1419 66.796 19.7565 77.9053 20.9457V54.0745L77.8024 55.0769Z" fill="url(#paint0_linear_567_806)"/>
<path d="M52.9951 49.5716C60.1657 49.5716 66 43.6116 66 36.2858C66 28.96 60.1657 23 52.9951 23H31.8642C31.3869 23 31.0006 23.3947 31.0006 23.8823C31.0006 24.3699 31.3869 24.7645 31.8642 24.7645H36.1008L36.0605 47.807H31.8781C31.4007 47.807 31.0144 48.2023 31.0144 48.6893C31.0144 49.1763 31.4007 49.5716 31.8781 49.5716H36.0576L36.0461 56.0721H31.8637C31.3863 56.0721 31 56.4674 31 56.9544C31 57.4414 31.3863 57.8367 31.8637 57.8367H36.0426L36.0196 71.116C36.019 71.6036 36.4048 71.9988 36.8821 72C36.8821 72 36.8827 72 36.8832 72C37.3594 72 37.7463 71.6059 37.7469 71.1195L37.7699 57.8367H53.8633C54.3401 57.8367 54.727 57.4414 54.727 56.9544C54.727 56.4674 54.3401 56.0721 53.8633 56.0721H37.774L37.7855 49.5716H52.9951ZM37.8281 24.7645H52.9951C59.2134 24.7645 64.2727 29.9335 64.2727 36.2864C64.2727 42.6387 59.2134 47.807 52.9951 47.807H37.7883L37.8281 24.7645Z" fill="url(#paint1_linear_567_806)"/>
<defs>
<linearGradient id="paint0_linear_567_806" x1="63.692" y1="-4.42642" x2="-5.52442" y2="59.5536" gradientUnits="userSpaceOnUse">
<stop offset="0.1177" stop-color="#7ACA37"/>
<stop offset="0.2561" stop-color="#70C53A"/>
<stop offset="0.4886" stop-color="#56B641"/>
<stop offset="0.7848" stop-color="#2C9F4E"/>
<stop offset="1" stop-color="#098C58"/>
</linearGradient>
<linearGradient id="paint1_linear_567_806" x1="57.003" y1="17.3401" x2="17.3468" y2="50.8672" gradientUnits="userSpaceOnUse">
<stop offset="0.1177" stop-color="#7ACA37"/>
<stop offset="0.2561" stop-color="#70C53A"/>
<stop offset="0.4886" stop-color="#56B641"/>
<stop offset="0.7848" stop-color="#2C9F4E"/>
<stop offset="1" stop-color="#098C58"/>
</linearGradient>
</defs>
</svg>

<svg width="96" height="96" fill="none" xmlns="http://www.w3.org/2000/svg"><path d="M79.321 18.353a1.368 1.368 0 0 0-.314-.073C67.71 17.15 58.639 14.65 48.34 5.685a1.385 1.385 0 0 0-1.953.135c-.029.032-.037.074-.062.109-10.215 8.825-19.243 11.307-30.468 12.429-.026.003-.05.011-.076.015a1.367 1.367 0 0 0-1.163 1.281c-.002.028-.009.054-.009.081V55.33c0 .123.016.244.049.362C20.85 78.528 45.833 89.38 46.894 89.83a1.39 1.39 0 0 0 1.077.003c1.072-.451 26.342-11.302 32.534-34.14.02-.072.033-.145.04-.22l.122-1.186c.004-.047.007-.094.007-.14V19.735c0-.754-.603-1.365-1.353-1.382Zm-1.519 36.724c-5.4 19.672-26.689 30.264-30.364 31.96-3.643-1.698-24.622-12.245-30.059-31.893V20.977c10.953-1.21 19.988-3.879 30.099-12.401 10.204 8.567 19.318 11.181 30.427 12.37v33.13l-.103 1.002Z" fill="url(#a)"/><path d="M52.995 49.572c7.17 0 13.005-5.96 13.005-13.286S60.166 23 52.995 23h-21.13a.873.873 0 0 0-.864.882c0 .488.386.883.863.883h4.237l-.04 23.042h-4.183a.873.873 0 0 0-.864.882c0 .487.387.883.864.883h4.18l-.012 6.5h-4.182a.873.873 0 0 0-.864.882c0 .487.386.883.864.883h4.179l-.023 13.279c-.001.488.385.883.862.884h.001a.873.873 0 0 0 .864-.88l.023-13.283h16.093a.873.873 0 0 0 .864-.883.873.873 0 0 0-.864-.882H37.774l.011-6.5h15.21ZM37.828 24.764h15.167c6.218 0 11.278 5.17 11.278 11.522 0 6.353-5.06 11.521-11.278 11.521H37.788l.04-23.043Z" fill="url(#b)"/><defs><linearGradient id="a" x1="63.692" y1="-4.426" x2="-5.524" y2="59.554" gradientUnits="userSpaceOnUse"><stop offset=".118" stop-color="#7ACA37"/><stop offset=".256" stop-color="#70C53A"/><stop offset=".489" stop-color="#56B641"/><stop offset=".785" stop-color="#2C9F4E"/><stop offset="1" stop-color="#098C58"/></linearGradient><linearGradient id="b" x1="57.003" y1="17.34" x2="17.347" y2="50.867" gradientUnits="userSpaceOnUse"><stop offset=".118" stop-color="#7ACA37"/><stop offset=".256" stop-color="#70C53A"/><stop offset=".489" stop-color="#56B641"/><stop offset=".785" stop-color="#2C9F4E"/><stop offset="1" stop-color="#098C58"/></linearGradient></defs></svg>
